X:1
T:Title
%%score { ( 1 4 ) | ( 2 3 ) }
L:1/8
M:4/4
K:Bb
V:1 treble nm="Grand Piano"
V:4 treble 
V:2 bass 
V:3 bass 
V:1
 z4 z2[Q:1/4=110] [DF]2 | [DF]2 [DG]2 [DA]2 [DB]2 | [Fd]4 [DB]2 [DF]2 | [DG]2 [DA]2 [DB]2 [Dc]2 | %4
 A6 F2 | A2 B2 c2 d2 | e4 c2 A2 | G2 [FA]2 [FB]2 [Fc]2 | [Fd]6 d2 | d2 d2 e2 d2 | %10
 [=Ed]4 [Ec]2 [Ec]2 | c2 c2 d2 c2 | [Dc]4 [DB]2 [FB]2 | [EB]2 [EB]2 [B,FA]2 [B,EG]2 | %14
 [B,F]2 [B,DB]2 [Fd]2 [Ge]2 | [Fd]4 [Ec]4 | [B,DB]6 z2 | d4 F4 | G2 [EB]2 B2- [FB]2 | c2 c2 c2 d2 | %20
 [=Ec]2 G2 c4 | d4 B4 | e4 =e4 | [Bf]2 [Fd]2 [DB]2 [Ge]2 |[M:5/4] [Fd]3 [Ec]3 [DB]4 |] %25
V:2
 z4 z2 [B,,B,]2 | [B,,B,]2 [B,,B,]2 [B,,F,]2 [B,,F,]2 | [B,,B,]4 [B,,F,]2 [B,,B,]2 | %3
 [B,,B,]2 [B,,B,]2 [B,,F,]2 [B,,B,]2 | [F,CE]6 [F,A,E]2 | [F,CE]2 [F,B,D]2 [F,A,F]2 [F,B,F]2 | %6
 [F,CF]4 [F,A,F]2 [F,CF]2 | [=E,B,C]2 [_E,C]2 [D,B,]2 [C,A,]2 | [B,,B,]6[K:treble] [B,F]2 | %9
 [G,=B,F]2 [G,B,F]2 [G,B,G]2 [G,B,F]2 | [C,B,]4 [C,B,]2 [C,B,]2 | %11
 [F,A,E]2 [F,A,E]2 [F,A,F]2 [F,A,E]2 | [B,,F,]4 [B,,F,]2 [D,_A,]2 | [E,G,]2 [E,G,]2 E,2 E,2 | %14
 D,2 B,,2 B,2 [E,B,]2 | [F,B,]4 [F,A,]4 | z4[K:treble] GABc | [B,,B,]2 [B,,B,]2 [B,,B,]2 [B,,B,]2 | %18
 [E,B,E]2 [E,G,]2 [B,,F,]2 [D,B,]2 | [F,A,F]2 [F,A,F]2 [G,B,=E]2 [G,B,E]2 | %20
 [C,B,]2 [=E,B,]2[K:treble] [F,A,F]4 | [B,F]2 B,2 [_A,B,D]2 [A,B,]2 | %22
 [G,B,E]2 [G,B,]2 [^F,_D]2 [F,D]2 | [F,D]2 [F,B,]2 [G,B,]2 [E,B,]2 | %24
[M:5/4] [F,B,]3 [F,A,]3 [B,,B,]4 |] %25
V:3
 x8 | x8 | x8 | x8 | x8 | x8 | x8 | x8 | x6[K:treble] x2 | x8 | x8 | x8 | x8 | x8 | x8 | x8 | %16
 B,,6[K:treble] z2 | x8 | x8 | x8 | x4[K:treble] x4 | x8 | x8 | x8 |[M:5/4] x10 |] %25
V:4
 x8 | x8 | x8 | x8 | x8 | x8 | x8 | x8 | x8 | x8 | x8 | x8 | x8 | x8 | x8 | x8 | x8 | F2 F2 D2 D2 | %18
 z4 D2 z2 | x8 | x8 | z2 F2 z2 D2 | z2 B2 B2 B2 | x8 |[M:5/4] x10 |] %25

